X:1
T:#8 - Kreutzer 42 Studies for the Violin
T:L'art de l'archet el arte de arco 
T:Giuseppe Tartini (1692-1770) 
T:Variación 1
C:Giuseppe Tartini
L:1/8
Q:1/4=40
M:4/4
K:F
V:1 treble nm="Violin" snm="Vln."
V:1
|: c | (Tf/e/){/g}(f- f/c/f/a/) (Tg/f/){/a}(g- g/c/g/b/) | %2
 (Ta/g/){/b}a- (a/f/"^4"c'/"^3"a/) (Tg/f/){/a}g- (g/{cd}c/=B/c/) | %3
 (Ta/^g/){/b}a- (a/Pd/^c/d/) (T=g/^f/){/a}g- (g/P=c/=B/c/ | %4
 .a/)(f/e/d/)({cd)e} (Td7/4c/4) !tenuto!c3 z :: c | %6
 (Tf/e/){/g}f- (f/c/"^1"d/_e/) (Te/d/)d- (d/"^0"=e/"^1"f/"^2"^f/) | %7
"^2" (Tg/^f/){/a}g- (g/d/e/=f/) (Tf/e/)"^2"e- e/(g/b/d'/ | %8
 .c'/)(f/a/c'/ .b/)"^0"(e/"^2"g/b/ .a)(Tc{=B)c}"^3" (f2- | %9
 f/d'/c'/4b/4a/4"^2"g/4) (Tg7/4f/4) !tenuto!f3 z :| %10

